icons/project-template-16.svg

<?xml version="1.0" encoding="UTF-8"?><svg id="icons" xmlns="http://www.w3.org/2000/svg" viewBox="0 0 16 16"><defs><style>.cls-1{fill:none;}.cls-1,.cls-2{stroke-width:0px;}</style></defs><path class="cls-2" d="m2,5h12v-.58936l-2.55615-3.41064H3.55615l-2.55615,3.41064v9.58936h6v-1H2V5Zm6-3h2.94385l1.49884,2h-4.44269v-2Zm-3.94385,0h2.94385v2H2.55731l1.49884-2Zm10.91357,4h-5.93945c-.56787,0-1.03027.4624-1.03027,1.03027v7.96973c0,.56787.43213,1,1,1h6c.56787,0,1-.4624,1-1.03027v-7.93945c0-.56787-.4624-1.03027-1.03027-1.03027Zm.03027,9h-6V7h6s.0166,8,0,8Zm-3-6h2v1h-2v-1Zm0,3h2v1h-2v-1Zm-2-3h1v1h-1v-1Zm0,3h1v1h-1v-1Z"/><rect class="cls-1" width="16" height="16"/></svg>

<svg xmlns="http://www.w3.org/2000/svg" viewBox="0 0 16 16"><path d="M2 5h12v-.59L11.444 1H3.556L1 4.41V14h6v-1H2V5zm6-3h2.944l1.499 2H8V2zM4.056 2H7v2H2.557l1.5-2zM14.97 6H9.03C8.462 6 8 6.462 8 7.03V15c0 .568.432 1 1 1h6c.568 0 1-.462 1-1.03V7.03C16 6.462 15.538 6 14.97 6zm.03 9H9V7h6s.017 8 0 8zm-3-6h2v1h-2V9zm0 3h2v1h-2v-1zm-2-3h1v1h-1V9zm0 3h1v1h-1v-1z" stroke-width="0"/><path stroke-width="0" fill="none" d="M0 0h16v16H0z"/></svg>
